flaticon/travel/gps.svg

<svg xmlns="http://www.w3.org/2000/svg" width="32" height="32" viewBox="0 0 24 24">
    <path d="M 21.304688 2.601562 L 2.695312 2.601562 C 1.207031 2.601562 0 3.808594 0 5.292969 L 0 18.703125 C 0 20.191406 1.207031 21.398438 2.695312 21.398438 L 21.304688 21.398438 C 22.792969 21.398438 24 20.191406 24 18.707031 L 24 5.292969 C 24 3.808594 22.792969 2.601562 21.304688 2.601562 Z M 23.199219 18.707031 C 23.199219 19.75 22.351562 20.601562 21.304688 20.601562 L 2.695312 20.601562 C 1.652344 20.601562 0.800781 19.75 0.800781 18.707031 L 0.800781 5.292969 C 0.800781 4.25 1.652344 3.398438 2.695312 3.398438 L 21.304688 3.398438 C 22.351562 3.398438 23.199219 4.25 23.199219 5.292969 Z M 23.199219 18.707031"/>
    <path d="M4.496094 17.800781L3.503906 17.800781C3.117188 17.800781 2.800781 18.117188 2.800781 18.503906L2.800781 19.496094C2.800781 19.882812 3.117188 20.199219 3.503906 20.199219L4.496094 20.199219C4.882812 20.199219 5.199219 19.882812 5.199219 19.496094L5.199219 18.503906C5.199219 18.117188 4.882812 17.800781 4.496094 17.800781zM4.398438 19.398438L3.601562 19.398438 3.601562 18.601562 4.398438 18.601562zM7.695312 17.800781L6.703125 17.800781C6.316406 17.800781 6 18.117188 6 18.503906L6 19.496094C6 19.882812 6.316406 20.199219 6.703125 20.199219L7.695312 20.199219C8.085938 20.199219 8.398438 19.882812 8.398438 19.496094L8.398438 18.503906C8.398438 18.117188 8.085938 17.800781 7.695312 17.800781zM7.601562 19.398438L6.800781 19.398438 6.800781 18.601562 7.601562 18.601562zM15.496094 6.003906L6.234375 10.253906C6.074219 10.324219 5.980469 10.496094 6.003906 10.667969 6.027344 10.84375 6.160156 10.980469 6.335938 11.011719L10.332031 11.679688 10.785156 15.449219C10.808594 15.625 10.941406 15.765625 11.117188 15.792969 11.140625 15.796875 11.160156 15.800781 11.183594 15.800781 11.332031 15.800781 11.472656 15.714844 11.542969 15.578125L16.019531 6.542969C16.097656 6.390625 16.066406 6.207031 15.949219 6.085938 15.832031 5.964844 15.648438 5.929688 15.496094 6.003906zM11.421875 14.023438L11.089844 11.289062C11.066406 11.113281 10.933594 10.96875 10.757812 10.941406L7.75 10.4375 14.800781 7.199219zM11.421875 14.023438"/>
    <path d="M 20.828125 4.199219 L 3.171875 4.199219 C 2.304688 4.199219 1.601562 4.90625 1.601562 5.773438 L 1.601562 15.828125 C 1.601562 16.695312 2.304688 17.398438 3.171875 17.398438 L 20.828125 17.398438 C 21.695312 17.398438 22.398438 16.695312 22.398438 15.828125 L 22.398438 5.773438 C 22.398438 4.90625 21.695312 4.199219 20.828125 4.199219 Z M 20.828125 5 C 21.253906 5 21.601562 5.347656 21.601562 5.773438 L 21.601562 7.710938 L 18.398438 7.070312 L 18.398438 5 Z M 2.398438 5.773438 C 2.398438 5.347656 2.746094 5 3.171875 5 L 6.398438 5 L 6.398438 6.886719 L 2.398438 5.886719 Z M 3.171875 16.601562 C 2.746094 16.601562 2.398438 16.253906 2.398438 15.828125 L 2.398438 13.914062 L 6.398438 14.914062 L 6.398438 16.601562 Z M 21.601562 15.828125 C 21.601562 16.253906 21.253906 16.601562 20.828125 16.601562 L 18.398438 16.601562 L 18.398438 15.441406 L 21.601562 15.761719 Z M 21.601562 14.957031 L 17.601562 14.558594 L 17.601562 16.601562 L 7.199219 16.601562 L 7.199219 14.289062 L 2.398438 13.085938 L 2.398438 6.710938 L 7.199219 7.914062 L 7.199219 5 L 17.601562 5 L 17.601562 7.726562 L 21.601562 8.527344 Z M 21.601562 14.957031"/>
</svg>

<svg xmlns="http://www.w3.org/2000/svg" width="32" height="32" viewBox="0 0 24 24">
    <path d="M21.305 2.602H2.695A2.695 2.695 0 0 0 0 5.293v13.41a2.696 2.696 0 0 0 2.695 2.695h18.61A2.695 2.695 0 0 0 24 18.707V5.293a2.695 2.695 0 0 0-2.695-2.691zm1.894 16.105a1.896 1.896 0 0 1-1.894 1.895H2.695a1.899 1.899 0 0 1-1.894-1.895V5.293c0-1.043.851-1.895 1.894-1.895h18.61c1.047 0 1.894.852 1.894 1.895zm0 0"/>
    <path d="M4.496 17.8h-.992a.705.705 0 0 0-.703.704v.992c0 .387.316.703.703.703h.992a.705.705 0 0 0 .703-.703v-.992a.705.705 0 0 0-.703-.703zm-.098 1.598h-.796v-.796h.796zm0 0M7.695 17.8h-.992a.705.705 0 0 0-.703.704v.992c0 .387.316.703.703.703h.992c.39 0 .703-.316.703-.703v-.992a.703.703 0 0 0-.703-.703zm-.093 1.598H6.8v-.796h.8zm0 0M15.496 6.004l-9.262 4.25a.396.396 0 0 0-.23.414.402.402 0 0 0 .332.344l3.996.668.453 3.77a.398.398 0 0 0 .332.343c.024.004.043.008.067.008.148 0 .289-.086.359-.223l4.477-9.035a.397.397 0 0 0-.524-.54zm-4.074 8.02l-.332-2.735a.402.402 0 0 0-.332-.348l-3.008-.504L14.8 7.2zm0 0"/>
    <path d="M20.828 4.2H3.172c-.867 0-1.57.706-1.57 1.573v10.055c0 .867.703 1.57 1.57 1.57h17.656a1.57 1.57 0 0 0 1.57-1.57V5.773c0-.867-.703-1.574-1.57-1.574zm0 .8c.426 0 .774.348.774.773v1.938l-3.204-.64V5zm-18.43.773c0-.425.348-.773.774-.773h3.226v1.887l-4-1zm.774 10.829a.775.775 0 0 1-.774-.774v-1.914l4 1v1.688zm18.43-.774a.775.775 0 0 1-.774.774h-2.43v-1.16l3.204.32zm0-.871l-4-.398v2.043H7.199v-2.313l-4.8-1.203V6.71l4.8 1.203V5h10.403v2.727l4 .8zm0 0"/>
</svg>
